!!!OTL: Mailí san se&oacute;irse, S. 181
!!!id: I0560
**kern
*clefG2
*k[b-e-a-]
*E-:
{8b-
16cc
16dd
=1
4ee-
16ee-
8.dd
8cc
8b-
=2
4b-
16cc
8.b-
16a-
8.g
=3
4a-
4g
8f
8e-
=4
2c}
=5
{16e-
8f
8g
8b-
16e-
=6
4cc
16dd
8.cc
16b-
8.g
=7
4f
4b-
4B-
=8
4c
4f
4e-
=9
2e-}
=10
{16e-
8B-
8c
8dd
16e-
=11
4e-
4f
8g
8f
=12
4g
4g
8f
8e-
=13
4a-
4b-
8cc
8dd
=14
2ee-}
=15
{16e-
8b-
8cc
8ee-
16e-
=16
4ff
4gg
16e-
8ff
8ee-
8cc
16e-
=17
4b-
8cc
8b-
16e-
8cc
8b-
8g
16e-
=18
4g
8b-
8g
8f
8g
=19
2f
=20
16aaaa-
16eeee-}
{8a-
8g
=21
4a-
4b-
8cc
8dd
=22
4.ee-
8ee-
8dd
8cc
=23
4b-
4g
8f
8e-
=24
2c}
=25
{16e-
8f
8g
8b-
16e-
=26
4cc
8dd
8cc
8b-
8g
=27
4f
4b-
8B-
8B-
=28
4c
4f
4e-
=29
2e-}
==
*-
!!!minrhy: 16
!!!meters: 3/4 ]  ZZ[6
!!!cut: Mailí san se&oacute;irse, S. 181
!!!reg: Irland
!!!trd: O'SULLIVAN, Donal: Song of the Irish
!!!rhy1: X_XX  X__XX_.X_X_  X__XX_.XX_.  X__X__X_X_  X___
!!!rhy2: (X_X_X_)  X__XX_.XX_.  X__X__X__  X__X__X__  X___
!!!key: I0560  16 Eb 3/4 ]  ZZ[6
!!!mod: HEPTATONIK IONISCH]  AMBITUS[13
!!!kad: -61+12-61
!!!akz: +154-6_62-61_134+1_+2532_4+15-6_62-61_
!!!fot: 'a__b__c__d__e__bv_
!!!for: 'a__b__c__d__e__f__
!!!fok: '^d_~d_~a_^d_^d_~d_
!! PHRAS[AUFTAKTIG]
!!!fkt: "Songs of the Harpers", erz&auml;hlendes Lied, Liebe?
!! IRISCHE V
!! PR[6] 2K[6] 2G[23] 3K[6] 3G[3] 4A[2] 4Ü[0] 5A[1] 6K[0] 6G[0]
!! 7K[0] 7G[0] 8A[1] MEHR[0] SI[41] ABS[109] SR[29] SP[12]
!! ST[24] 2k[7] 2g[36] 3k[9] 3g[1] 4d[0] 4ü[0] 5d[0] 6k[0] 6g[0]
!! 7k[0] 7g[0] 8d[0] mehr[0] si[53] dm[-12] sr[43] sp[10]
!! 1F[3] 2F[68] 3F[15] 4F[5] LF[0] 2P[3] 3P[1] 4P[0] TRI[0] DF[7] AB[110]
!! TF[0] U3K[0] U3[0] U4[0] U4Ü[0] U5[0] U6K[0] U6[0] U7K[0] U7[0]
!! N1[11] N2K[0] N2[9] N3K[0] N3[12] N4[3] N4Ü[0] N5[15] N6K[0] N6[17]
!!!n7k: 0] N7[11] O1[15] O2K[0] O2[5] O3K[0] O3[3] HÖ[0
!!!RNB: symbol: &auml;      = a umlaut  (UTF-8: Å„)
!!!RNB: symbol: &oacute;= o acute  (UTF-8: Ã³)
